X:263
T:Piper in the Meadows Straying, The
R:hp 16
B:Joyce, P. W. OIFM&S
M:4/4
L:1/8
Q:2/4=90
K:G
d2dc B2BA|GFGA B2G2|ABcA G2F2|G2B2 B2A2|
d2dc B2BA|GFGA B2G2|ABcA G2F2|G2B2 G4:|
A2AB c2A2|BABc d2A2|d2dd e2g2|fedc d2 ((3ABc)|
dedc BcBA|GFGA B2G2|ABcA G2F2|G2B2 G4|

